X: 0
T: Slowly Fall The Snow-Flakes
Z: W. Borrow
Z: Copyright © 2004 <Name>
Z: All Rights Reserved
L: 1/4
M: 4/4
Q: 1/4=110
V: P1 name="Staff"
%%MIDI program 1 -1
K: G
[V: P1]  B B d d | G2 B2 | B B (B/ A/) G | A2z2 | B B d d | G2 c2 | B (d/ c/) B A | G2z2 | G3/ G/ F c | c2 B2 | B B (B/ A/) G | A2z2 | d3/ d/ G F | E2 c2 | B B (A/ B/) A | G2z2|]
w: Slow- ly fall the snow- flakes, Cloth- ing earth_ in white, Sweet- ly bells are chim- ing, On this_ Christ- mas night; Dark the earth a- fore time, White on Christ-_ mas morn; Christ the curse re- ver sing, Ma- ry's Son_ is born.

